raw-svg/bell-slash.svg

<svg fill="none" height="24" viewBox="0 0 24 24" width="24" xmlns="http://www.w3.org/2000/svg"><path clip-rule="evenodd" d="m12 3.25c-1.5635 0-2.88704.39424-3.92688 1.14075-.53497.38406-.95846.94248-1.24189 1.37982l-1.3009-1.3009c-.29289-.29289-.76777-.29289-1.06066 0s-.29289.76777 0 1.06066l2 2 10.00003 9.99997 2 2c.2929.2929.7677.2929 1.0606 0s.2929-.7677 0-1.0606l-.7196-.7197h1.6893c.4142 0 .75-.3358.75-.75 0-.4053-.3215-.7356-.7235-.7495l-.0023-.0003c-.0035-.0005-.0087-.0013-.0153-.0024-.0291-.0052-.0871-.0183-.1652-.0506-.1517-.0625-.4024-.206-.6755-.5438-.554-.6851-1.2482-2.2349-1.2482-5.6534 0-1.87787-.5073-3.57443-1.6071-4.81094-1.1116-1.24981-2.7482-1.93906-4.8129-1.93906zm-3.94523 3.3913c-.04863.07672-.0932.15057-.13331.2195l9.38924 9.3892h.9377c-.7445-1.1244-1.3284-3.0264-1.3284-6.25 0-1.62213-.4377-2.92557-1.2279-3.81406-.7784-.87519-1.9768-1.43594-3.6921-1.43594-1.3083 0-2.31104.32724-3.0521.85925-.32749.23511-.64324.63789-.89313 1.03205zm-.97477 3.3587c0-.41421-.33578-.75-.75-.75-.41421 0-.75.33579-.75.75 0 1.4037-.11719 2.4969-.2956 3.3457-.34284 1.6313-.90457 2.3341-1.27444 2.6351-.18805.153-.3461.2188-.43946.2474-.04755.0145-.08025.02-.09369.0218l-.00335.0005c-.40192.0139-.72346.3442-.72346.7495 0 .4142.33579.75.75.75h.00146 4.82324c.34655 1.7136 1.858 3 3.6753 3 1.3489 0 2.5298-.7094 3.1896-1.7746.2182-.3522.1095-.8144-.2426-1.0326-.3521-.2181-.8144-.1095-1.0325.2426-.3968.6406-1.1043 1.0646-1.9145 1.0646-.9826 0-1.8149-.6247-2.12274-1.5h3.12274c.4142 0 .75-.3358.75-.75s-.3358-.75-.75-.75h-4-3.24838c.40276-.6088.7593-1.4471 1.00071-2.5957.20398-.9706.32767-2.1698.32767-3.6543z" fill="#000" fill-rule="evenodd"/></svg>

<svg width="24" height="24" viewBox="0 0 24 24" fill="none" xmlns="http://www.w3.org/2000/svg">
<path fill-rule="evenodd" clip-rule="evenodd" d="M12 3.25C10.4365 3.25 9.11296 3.64424 8.07312 4.39075C7.53815 4.77481 7.11466 5.33323 6.83123 5.77057L5.53033 4.46967C5.23744 4.17678 4.76256 4.17678 4.46967 4.46967C4.17678 4.76256 4.17678 5.23744 4.46967 5.53033L6.46967 7.53033L16.4697 17.5303L18.4697 19.5303C18.7626 19.8232 19.2374 19.8232 19.5303 19.5303C19.8232 19.2374 19.8232 18.7626 19.5303 18.4697L18.8107 17.75H20.5C20.9142 17.75 21.25 17.4142 21.25 17C21.25 16.5947 20.9285 16.2644 20.5265 16.2505L20.5242 16.2502C20.5207 16.2497 20.5155 16.2489 20.5089 16.2478C20.4798 16.2426 20.4218 16.2295 20.3437 16.1972C20.192 16.1347 19.9413 15.9912 19.6682 15.6534C19.1142 14.9683 18.42 13.4185 18.42 10C18.42 8.12213 17.9127 6.42557 16.8129 5.18906C15.7013 3.93925 14.0647 3.25 12 3.25ZM8.05477 6.6413C8.00614 6.71802 7.96157 6.79187 7.92146 6.8608L17.3107 16.25H18.2484C17.5039 15.1256 16.92 13.2236 16.92 10C16.92 8.37787 16.4823 7.07443 15.6921 6.18594C14.9137 5.31075 13.7153 4.75 12 4.75C10.6917 4.75 9.68896 5.07724 8.9479 5.60925C8.62041 5.84436 8.30466 6.24714 8.05477 6.6413ZM7.08 10C7.08 9.58579 6.74422 9.25 6.33 9.25C5.91579 9.25 5.58 9.58579 5.58 10C5.58 11.4037 5.46281 12.4969 5.2844 13.3457C4.94156 14.977 4.37983 15.6798 4.00996 15.9808C3.82191 16.1338 3.66386 16.1996 3.5705 16.2282C3.52295 16.2427 3.49025 16.2482 3.47681 16.25L3.47346 16.2505C3.07154 16.2644 2.75 16.5947 2.75 17C2.75 17.4142 3.08579 17.75 3.5 17.75L3.50146 17.75L8.3247 17.75C8.67125 19.4636 10.1827 20.75 12 20.75C13.3489 20.75 14.5298 20.0406 15.1896 18.9754C15.4078 18.6232 15.2991 18.161 14.947 17.9428C14.5949 17.7247 14.1326 17.8333 13.9145 18.1854C13.5177 18.826 12.8102 19.25 12 19.25C11.0174 19.25 10.1851 18.6253 9.87726 17.75H13C13.4142 17.75 13.75 17.4142 13.75 17C13.75 16.5858 13.4142 16.25 13 16.25H9H5.75162C6.15438 15.6412 6.51092 14.8029 6.75233 13.6543C6.95631 12.6837 7.08 11.4845 7.08 10Z" fill="black"/>
</svg>
